src/icons/editor/glyph/ColumnMoveRightIcon.svg

<svg width="24" height="24" viewBox="0 0 24 24" fill="none" xmlns="http://www.w3.org/2000/svg">
<path fill-rule="evenodd" clip-rule="evenodd" d="M5 3C3.89543 3 3 3.89543 3 5V19C3 20.1046 3.89543 21 5 21H9C10.1046 21 11 20.1046 11 19V5C11 3.89543 10.1046 3 9 3H5ZM16.7574 16.2427L21 12L20.9999 12L19.5858 10.5858L16.7573 7.75732L15.3431 9.17153L17.1715 11L12.9999 11V13H17.1716L15.3431 14.8285L16.7574 16.2427Z" fill="currentColor"/>
</svg>

<svg xmlns="http://www.w3.org/2000/svg" width="24" height="24" fill="currentColor" viewBox="0 0 24 24">
  <path fill-rule="evenodd" d="M5 3a2 2 0 0 0-2 2v14a2 2 0 0 0 2 2h4a2 2 0 0 0 2-2V5a2 2 0 0 0-2-2H5Zm11.757 13.243L21 12l-1.414-1.414-2.829-2.829-1.414 1.415L17.172 11H13v2h4.172l-1.829 1.829 1.414 1.414Z" clip-rule="evenodd"/>
</svg>
